X: 1596
T: The Slipper Hornpipe
M:C|
L:1/8
R:Hornpipe
B:O'Neill's 1596
N:"Collected by Dillon."
Z:Transcribed by Michael D. Long, 9/30/98
K:D
(3(ABc)|d>f (3(edc) d>AB>G|F>dE>d D2 d2|c>eA>d c>de>f|g>ef>d (3(cBA) B>c|
d>f (3(edc) d>AB>G|F>dE>d D2 d2|(3(edc) B>c d>fe>c|d2 d>d d2:|\
|:e>c|A>ce>c A>ce>c|A>df>d A>df>d|
B>ge>d c>de>f|g>ef>d (3(cBA) B>c|d>f (3(edc) d>AB>G|F>dE>d D2 d2|\
(3(cBA) B>c d>fe>c|d2 d>d d2:|


